packages/icons/svg/Fill/color-picker.svg

<svg width="24" height="24" viewBox="0 0 24 24" fill="none" xmlns="http://www.w3.org/2000/svg">
<g id="Icon/Fill/color-picker">
<path id="Mask" fill-rule="evenodd" clip-rule="evenodd" d="M6.36614 14.9395L11.9451 9.3595L14.6411 12.0555L11.8511 14.8515M19.4021 7.3365L16.6631 4.5975C15.8951 3.8295 14.6771 3.8015 13.9481 4.5295L11.9451 6.5315L10.7071 5.2935C10.3161 4.9025 9.68314 4.9025 9.29314 5.2935C8.90214 5.6835 8.90214 6.3165 9.29314 6.7075L10.5311 7.9455L4.95214 13.5255C4.62714 13.8505 4.42514 14.2825 4.38314 14.7395L4.00414 18.9095C3.97714 19.2055 4.08314 19.4975 4.29314 19.7075C4.48114 19.8955 4.73614 20.0005 5.00014 20.0005C5.03014 20.0005 5.06014 19.9995 5.09114 19.9965L9.26114 19.6175C9.71814 19.5755 10.1491 19.3735 10.4741 19.0475L16.0541 13.4685L17.2931 14.7075C17.4881 14.9025 17.7441 15.0005 18.0001 15.0005C18.2561 15.0005 18.5121 14.9025 18.7071 14.7075C19.0971 14.3165 19.0971 13.6835 18.7071 13.2935L17.4691 12.0545L19.4701 10.0515C20.2001 9.3225 20.1701 8.1045 19.4021 7.3365Z" fill="#000000"/>
</g>
</svg>

<svg fill="none" height="24" viewBox="0 0 24 24" width="24" xmlns="http://www.w3.org/2000/svg"><path clip-rule="evenodd" d="m6.3662 14.9396 5.579-5.58 2.696 2.696-2.79 2.796m7.551-7.51507-2.739-2.739c-.768-.768-1.986-.796-2.715-.068l-2.003 2.002-1.238-1.238c-.391-.391-1.02397-.391-1.41397 0-.391.39-.391 1.023 0 1.414l1.23797 1.238-5.57897 5.57997c-.325.325-.527.757-.569 1.214l-.379 4.17c-.027.296.079.588.289.798.188.188.443.293.707.293.03 0 .06-.001.091-.004l4.17-.379c.457-.042.88797-.244 1.21297-.57l5.58-5.579 1.239 1.239c.195.195.451.293.707.293s.512-.098.707-.293c.39-.391.39-1.024 0-1.414l-1.238-1.239 2.001-2.003c.73-.72897.7-1.94697-.068-2.71497z" fill="#6b7280" fill-rule="evenodd"/></svg>
